Resources/Public/Backend/Icons/ctype/denacharts_chart_doughnut.svg

<svg xmlns="http://www.w3.org/2000/svg" width="16" height="16" viewBox="0 0 16 16"><path d="M12.453,11.247l1.792,1.784A7.945,7.945,0,0,0,16,8.75H13.47A5.484,5.484,0,0,1,12.453,11.247Z"/><path d="M8,0A8.021,8.021,0,0,0,2.947,1.784L4.739,3.568A5.52,5.52,0,0,1,13.468,7.25H16A8.022,8.022,0,0,0,8,0Z"/><path d="M3.655,4.61,1.87,2.833A7.951,7.951,0,0,0,0,7.25H2.532A5.465,5.465,0,0,1,3.655,4.61Z"/><path d="M8,16a8.022,8.022,0,0,0,5.191-1.9l-1.785-1.777A5.522,5.522,0,0,1,2.533,8.75H0A8.021,8.021,0,0,0,8,16Z"/></svg>

<svg viewBox="0 0 16 16" xmlns="http://www.w3.org/2000/svg"><path d="m12.45 11.25 1.8 1.75a7.93 7.93 0 0 0 1.75-4.25h-2.53a5.49 5.49 0 0 1 -1.02 2.5z"/><path d="m8 0a8 8 0 0 0 -5 1.78l1.74 1.79a5.52 5.52 0 0 1 8.73 3.68h2.53a8 8 0 0 0 -8-7.25z"/><path d="m3.66 4.61-1.79-1.78a8 8 0 0 0 -1.87 4.42h2.53a5.5 5.5 0 0 1 1.13-2.64z"/><path d="m8 16a8 8 0 0 0 5.19-1.9l-1.78-1.77a5.53 5.53 0 0 1 -8.88-3.58h-2.53a8 8 0 0 0 8 7.25z"/></svg>
